dist/img/name-icon.svg

<svg width="24" height="24" viewBox="0 0 24 24" fill="none" xmlns="http://www.w3.org/2000/svg">
<path d="M5.06107 21.0451L5.50191 20.4383L5.06107 21.0451ZM3.95491 19.9389L4.56168 19.4981L3.95491 19.9389ZM20.0451 19.9389L19.4383 19.4981L20.0451 19.9389ZM18.9389 21.0451L18.4981 20.4383L18.9389 21.0451ZM18.9389 2.95491L18.4981 3.56168L18.9389 2.95491ZM20.0451 4.06107L19.4383 4.50191L20.0451 4.06107ZM5.06107 2.95491L5.50191 3.56168L5.06107 2.95491ZM3.95491 4.06107L4.56168 4.50191L3.95491 4.06107ZM8 15.25C7.58579 15.25 7.25 15.5858 7.25 16C7.25 16.4142 7.58579 16.75 8 16.75V15.25ZM16 16.75C16.4142 16.75 16.75 16.4142 16.75 16C16.75 15.5858 16.4142 15.25 16 15.25V16.75ZM8 11.25C7.58579 11.25 7.25 11.5858 7.25 12C7.25 12.4142 7.58579 12.75 8 12.75V11.25ZM16 12.75C16.4142 12.75 16.75 12.4142 16.75 12C16.75 11.5858 16.4142 11.25 16 11.25V12.75ZM8 7.25C7.58579 7.25 7.25 7.58579 7.25 8C7.25 8.41421 7.58579 8.75 8 8.75V7.25ZM11 8.75C11.4142 8.75 11.75 8.41421 11.75 8C11.75 7.58579 11.4142 7.25 11 7.25V8.75ZM20.25 11V13H21.75V11H20.25ZM3.75 13V11H2.25V13H3.75ZM12 21.25C10.1084 21.25 8.74999 21.249 7.69804 21.135C6.66013 21.0225 6.00992 20.8074 5.50191 20.4383L4.62023 21.6518C5.42656 22.2377 6.37094 22.5 7.53648 22.6263C8.68798 22.751 10.1418 22.75 12 22.75V21.25ZM2.25 13C2.25 14.8582 2.24897 16.312 2.37373 17.4635C2.50001 18.6291 2.76232 19.5734 3.34815 20.3798L4.56168 19.4981C4.19259 18.9901 3.97745 18.3399 3.865 17.302C3.75103 16.25 3.75 14.8916 3.75 13H2.25ZM5.50191 20.4383C5.14111 20.1762 4.82382 19.8589 4.56168 19.4981L3.34815 20.3798C3.70281 20.8679 4.13209 21.2972 4.62023 21.6518L5.50191 20.4383ZM20.25 13C20.25 14.8916 20.249 16.25 20.135 17.302C20.0225 18.3399 19.8074 18.9901 19.4383 19.4981L20.6518 20.3798C21.2377 19.5734 21.5 18.6291 21.6263 17.4635C21.751 16.312 21.75 14.8582 21.75 13H20.25ZM12 22.75C13.8582 22.75 15.312 22.751 16.4635 22.6263C17.6291 22.5 18.5734 22.2377 19.3798 21.6518L18.4981 20.4383C17.9901 20.8074 17.3399 21.0225 16.302 21.135C15.25 21.249 13.8916 21.25 12 21.25V22.75ZM19.4383 19.4981C19.1762 19.8589 18.8589 20.1762 18.4981 20.4383L19.3798 21.6518C19.8679 21.2972 20.2972 20.8679 20.6518 20.3798L19.4383 19.4981ZM12 2.75C13.8916 2.75 15.25 2.75103 16.302 2.865C17.3399 2.97745 17.9901 3.19259 18.4981 3.56168L19.3798 2.34815C18.5734 1.76232 17.6291 1.50001 16.4635 1.37373C15.312 1.24897 13.8582 1.25 12 1.25V2.75ZM21.75 11C21.75 9.14184 21.751 7.68798 21.6263 6.53648C21.5 5.37094 21.2377 4.42656 20.6518 3.62023L19.4383 4.50191C19.8074 5.00992 20.0225 5.66013 20.135 6.69804C20.249 7.74999 20.25 9.10843 20.25 11H21.75ZM18.4981 3.56168C18.8589 3.82382 19.1762 4.14111 19.4383 4.50191L20.6518 3.62023C20.2972 3.13209 19.8679 2.70281 19.3798 2.34815L18.4981 3.56168ZM12 1.25C10.1418 1.25 8.68798 1.24897 7.53648 1.37373C6.37094 1.50001 5.42656 1.76232 4.62023 2.34815L5.50191 3.56168C6.00992 3.19259 6.66013 2.97745 7.69804 2.865C8.74999 2.75103 10.1084 2.75 12 2.75V1.25ZM3.75 11C3.75 9.10843 3.75103 7.74999 3.865 6.69804C3.97745 5.66013 4.19259 5.00992 4.56168 4.50191L3.34815 3.62023C2.76232 4.42656 2.50001 5.37094 2.37373 6.53648C2.24897 7.68798 2.25 9.14184 2.25 11H3.75ZM4.62023 2.34815C4.13209 2.70281 3.70281 3.13209 3.34815 3.62023L4.56168 4.50191C4.82382 4.14111 5.14111 3.82382 5.50191 3.56168L4.62023 2.34815ZM8 16.75H16V15.25H8V16.75ZM8 12.75H16V11.25H8V12.75ZM8 8.75H11V7.25H8V8.75Z" fill="white" fill-opacity="0.8"/>
</svg>

<svg width="24" height="24" fill="none" xmlns="http://www.w3.org/2000/svg"><path d="m5.061 21.045.44-.607-.44.607ZM3.955 19.94l.607-.44-.607.44Zm16.09 0-.607-.44.607.44Zm-1.106 1.106-.44-.607.44.607Zm0-18.09-.44.607.44-.607Zm1.106 1.106-.607.44.607-.44ZM5.061 2.955l.44.607-.44-.607ZM3.955 4.06l.607.44-.607-.44ZM8 15.25a.75.75 0 0 0 0 1.5v-1.5Zm8 1.5a.75.75 0 0 0 0-1.5v1.5Zm-8-5.5a.75.75 0 0 0 0 1.5v-1.5Zm8 1.5a.75.75 0 0 0 0-1.5v1.5Zm-8-5.5a.75.75 0 0 0 0 1.5v-1.5Zm3 1.5a.75.75 0 0 0 0-1.5v1.5ZM20.25 11v2h1.5v-2h-1.5Zm-16.5 2v-2h-1.5v2h1.5ZM12 21.25c-1.892 0-3.25-.001-4.302-.115-1.038-.113-1.688-.328-2.196-.697l-.882 1.214c.807.586 1.75.848 2.916.974 1.152.125 2.606.124 4.464.124v-1.5ZM2.25 13c0 1.858-.001 3.312.124 4.463.126 1.166.388 2.11.974 2.917l1.214-.882c-.37-.508-.585-1.158-.697-2.196-.114-1.052-.115-2.41-.115-4.302h-1.5Zm3.252 7.438a4.25 4.25 0 0 1-.94-.94l-1.214.882a5.75 5.75 0 0 0 1.272 1.272l.882-1.214ZM20.25 13c0 1.892-.001 3.25-.115 4.302-.113 1.038-.328 1.688-.697 2.196l1.214.882c.586-.807.848-1.75.974-2.916.125-1.152.124-2.606.124-4.464h-1.5ZM12 22.75c1.858 0 3.312.001 4.463-.124 1.166-.126 2.11-.388 2.917-.974l-.882-1.214c-.508.37-1.158.585-2.196.697-1.052.114-2.41.115-4.302.115v1.5Zm7.438-3.252c-.262.36-.58.678-.94.94l.882 1.214a5.749 5.749 0 0 0 1.272-1.272l-1.214-.882ZM12 2.75c1.892 0 3.25.001 4.302.115 1.038.112 1.688.328 2.196.697l.882-1.214c-.807-.586-1.75-.848-2.916-.974-1.152-.125-2.606-.124-4.464-.124v1.5ZM21.75 11c0-1.858.001-3.312-.124-4.464-.126-1.165-.388-2.11-.974-2.916l-1.214.882c.37.508.585 1.158.697 2.196.114 1.052.115 2.41.115 4.302h1.5Zm-3.252-7.438c.36.262.678.58.94.94l1.214-.882a5.75 5.75 0 0 0-1.272-1.272l-.882 1.214ZM12 1.25c-1.858 0-3.312-.001-4.464.124-1.165.126-2.11.388-2.916.974l.882 1.214c.508-.37 1.158-.585 2.196-.697C8.75 2.751 10.108 2.75 12 2.75v-1.5ZM3.75 11c0-1.892.001-3.25.115-4.302.112-1.038.328-1.688.697-2.196L3.348 3.62c-.586.807-.848 1.75-.974 2.916C2.249 7.688 2.25 9.142 2.25 11h1.5Zm.87-8.652A5.75 5.75 0 0 0 3.348 3.62l1.214.882c.262-.36.58-.678.94-.94L4.62 2.348ZM8 16.75h8v-1.5H8v1.5Zm0-4h8v-1.5H8v1.5Zm0-4h3v-1.5H8v1.5Z" fill="#fff" fill-opacity=".8"/></svg>
